src/assets/svg/cart.svg

<svg width="60" height="58" viewBox="0 0 60 58" fill="none" xmlns="http://www.w3.org/2000/svg">
<path fill-rule="evenodd" clip-rule="evenodd" d="M15.4613 50.3155C17.6033 50.3155 19.3463 52.037 19.3463 54.1563C19.3463 56.2755 17.6033 58 15.4613 58C13.3193 58 11.5793 56.2755 11.5793 54.1563C11.5793 52.037 13.3193 50.3155 15.4613 50.3155ZM49.3023 50.3155C51.4473 50.3155 53.1903 52.037 53.1903 54.1563C53.1903 56.2755 51.4473 58 49.3023 58C47.1603 58 45.4203 56.2755 45.4203 54.1563C45.4203 52.037 47.1603 50.3155 49.3023 50.3155ZM2.63385 0.0281588L8.87387 1.09669C9.87887 1.27181 10.6439 2.09695 10.7309 3.10612L11.4359 11.4199L14.0574 11.421C14.4852 11.4212 14.9085 11.4214 15.3273 11.4215L20.1402 11.4238C20.5238 11.424 20.9032 11.4242 21.2783 11.4244L26.5925 11.4273C26.9263 11.4275 27.2562 11.4276 27.5821 11.4278L31.3061 11.4302C31.6011 11.4304 31.8924 11.4306 32.1799 11.4308L35.4554 11.4332C35.714 11.4334 35.9691 11.4336 36.2207 11.4338L39.0766 11.4362C39.3012 11.4364 39.5225 11.4366 39.7406 11.4368L41.6177 11.4387C41.8168 11.4389 42.0129 11.4391 42.2059 11.4393L44.3796 11.4418C44.5491 11.442 44.7158 11.4422 44.8797 11.4424L46.715 11.4449C46.8573 11.4452 46.997 11.4454 47.1341 11.4456L48.3005 11.4475C48.4228 11.4477 48.5426 11.4479 48.66 11.4482L49.9594 11.4508C50.0587 11.451 50.1559 11.4512 50.251 11.4514L51.0506 11.4534C51.1334 11.4536 51.2142 11.4538 51.2931 11.4541L52.1504 11.4567C52.2147 11.457 52.2772 11.4572 52.338 11.4574L52.8414 11.4594C52.8925 11.4597 52.9422 11.4599 52.9903 11.4601L53.4995 11.4629C53.5365 11.4631 53.5722 11.4633 53.6066 11.4636L53.8841 11.4656C53.9115 11.4659 53.9378 11.4661 53.963 11.4663L54.1628 11.4684C54.1821 11.4687 54.2005 11.4689 54.218 11.4691L54.354 11.4713C54.3668 11.4715 54.3788 11.4718 54.3903 11.472L54.4763 11.4741C54.4841 11.4744 54.4914 11.4746 54.4983 11.4749L54.5606 11.4778C54.5644 11.478 54.5679 11.4783 54.5712 11.4785C54.6004 11.4812 54.6047 11.4817 54.609 11.4822C56.2801 11.7226 57.7501 12.5863 58.7521 13.9161C59.7541 15.2428 60.1741 16.8783 59.9341 18.5167L57.0871 37.9817C56.5501 41.6859 53.298 44.479 49.518 44.479H16.7549C12.8039 44.479 9.45887 41.4277 9.13787 37.5246L6.38986 5.18975L1.86884 4.41803C0.641837 4.20433 -0.177166 3.05566 0.0328353 1.84169C0.248836 0.627722 1.43384 -0.161802 2.63385 0.0281588ZM13.4556 15.8731L11.8139 15.8721L13.6229 37.1595C13.7549 38.7979 15.1079 40.0268 16.7609 40.0268H49.512C51.075 40.0268 52.41 38.8751 52.632 37.3465L55.482 17.8785C55.548 17.4155 55.431 16.9525 55.146 16.5785C54.864 16.2015 54.45 15.9581 53.982 15.8928C53.9604 15.8937 53.9086 15.8944 53.8281 15.8951L53.5018 15.8969C53.4335 15.8972 53.3585 15.8975 53.2768 15.8977L51.5772 15.9003C51.4338 15.9004 51.2847 15.9005 51.1301 15.9005L47.1342 15.9004C46.9112 15.9003 46.6841 15.9002 46.4528 15.9001L41.8925 15.8974C41.6192 15.8972 41.343 15.897 41.0641 15.8967L38.4836 15.8947C38.1897 15.8945 37.8936 15.8942 37.5954 15.894L34.8622 15.8916C34.5535 15.8913 34.2434 15.891 33.9319 15.8907L32.0491 15.889C31.7332 15.8887 31.4164 15.8885 31.0989 15.8882L28.2257 15.8855C27.9054 15.8852 27.5848 15.8849 27.2643 15.8846L25.3423 15.8828C25.0225 15.8826 24.703 15.8823 24.3841 15.882L22.4784 15.8803C22.1624 15.88 21.8473 15.8797 21.5333 15.8794L18.7417 15.877C18.436 15.8768 18.1318 15.8765 17.8295 15.8763L14.3018 15.8737C14.0171 15.8735 13.735 15.8733 13.4556 15.8731ZM44.6937 22.391C45.9357 22.391 46.9437 23.3883 46.9437 24.6171C46.9437 25.8459 45.9357 26.8432 44.6937 26.8432H36.3777C35.1327 26.8432 34.1277 25.8459 34.1277 24.6171C34.1277 23.3883 35.1327 22.391 36.3777 22.391H44.6937Z" fill="#141416" fill-opacity="0.7"/>
</svg>

<svg xmlns="http://www.w3.org/2000/svg" width="60" height="58" fill="none"><path fill="#141416" fill-opacity=".7" fill-rule="evenodd" d="M15.461 50.316c2.142 0 3.885 1.721 3.885 3.84 0 2.12-1.743 3.844-3.885 3.844s-3.882-1.724-3.882-3.844 1.74-3.84 3.882-3.84m33.841 0c2.145 0 3.888 1.721 3.888 3.84 0 2.12-1.743 3.844-3.888 3.844-2.142 0-3.882-1.724-3.882-3.844s1.74-3.84 3.882-3.84M2.634.028l6.24 1.069c1.005.175 1.77 1 1.857 2.01l.705 8.313 2.621.001h1.27l4.813.003h1.138l5.315.003h.99l3.723.003h.874l3.275.003h.766l2.856.003h.664l1.877.003h.588l2.174.003h.5l1.835.003h.42l1.166.002.359.001 1.3.003h.291l.8.002.242.001.857.003h.188l.503.002.15.001.508.003h.108l.277.003h.079l.2.002.055.001.136.002.036.001.086.002h.022l.063.004h.01l.038.004a6.26 6.26 0 0 1 4.143 2.434 6.1 6.1 0 0 1 1.182 4.6l-2.847 19.466c-.537 3.704-3.789 6.497-7.569 6.497H16.755c-3.951 0-7.296-3.051-7.617-6.954L6.39 5.19l-4.521-.772A2.234 2.234 0 0 1 .033 1.842C.249.628 1.433-.162 2.633.028m10.822 15.845h-1.642l1.809 21.287c.132 1.638 1.485 2.867 3.138 2.867h32.751c1.563 0 2.898-1.152 3.12-2.68l2.85-19.469a1.73 1.73 0 0 0-.336-1.3 1.74 1.74 0 0 0-1.164-.685l-.154.002-.326.002h-.225l-1.7.003h-5.124l-4.56-.003h-.829l-2.58-.002-.889-.001-2.733-.002-.93-.001-1.883-.002h-.95l-2.873-.003-.962-.001-1.922-.002-.958-.001-1.906-.002h-.945l-2.791-.003h-.913l-3.527-.003zm31.238 6.518c1.242 0 2.25.997 2.25 2.226s-1.008 2.226-2.25 2.226h-8.316a2.237 2.237 0 0 1-2.25-2.226 2.237 2.237 0 0 1 2.25-2.226z" clip-rule="evenodd"/></svg>
